symbols/web/repeat_one_on/materialsymbolsrounded/repeat_one_on_wght700gradN25_20px.svg

<svg xmlns="http://www.w3.org/2000/svg" height="20" width="20"><path d="M9.417 8.938v2.874q0 .313.218.553.219.239.532.239.354 0 .573-.208.218-.208.218-.563V8.167q0-.313-.239-.552-.24-.24-.552-.24H9.104q-.312 0-.552.24-.24.239-.24.552 0 .354.209.562.208.209.562.209ZM3.271 19.271q-1.063 0-1.792-.729-.729-.73-.729-1.792V3.25q0-1.062.729-1.792.729-.729 1.792-.729h13.5q1.062 0 1.791.729.73.73.73 1.792v13.5q0 1.062-.73 1.792-.729.729-1.791.729Zm10.625-5.417H6.25l.354-.375q.271-.271.261-.667-.011-.395-.282-.687-.312-.292-.698-.292-.385 0-.697.292l-1.813 1.792q-.396.416-.396.927 0 .51.396.906l1.917 1.896q.312.312.687.302.375-.01.688-.323.291-.292.302-.677.01-.386-.302-.698l-.417-.417h8.333q.5 0 .896-.395.396-.396.396-.896v-2.917q0-.396-.292-.687-.291-.292-.708-.292-.375 0-.677.302-.302.302-.302.698Zm-7.75-7.771h7.646l-.396.396q-.271.271-.271.656 0 .386.313.698.291.292.687.292.396 0 .687-.292l1.834-1.812q.416-.417.416-.927 0-.511-.416-.906l-1.917-1.896q-.291-.313-.687-.292-.396.021-.667.312-.313.292-.313.678 0 .385.292.698l.438.416H5.458q-.52 0-.906.396-.385.396-.385.896v2.916q0 .396.281.688.281.292.698.292.396 0 .698-.302.302-.302.302-.698Z"/></svg>

<svg xmlns="http://www.w3.org/2000/svg" height="20" width="20"><path d="M9.417 8.938V11.812Q9.417 12.125 9.635 12.365Q9.854 12.604 10.167 12.604Q10.521 12.604 10.74 12.396Q10.958 12.188 10.958 11.833V8.167Q10.958 7.854 10.719 7.615Q10.479 7.375 10.167 7.375H9.104Q8.792 7.375 8.552 7.615Q8.312 7.854 8.312 8.167Q8.312 8.521 8.521 8.729Q8.729 8.938 9.083 8.938ZM3.271 19.271Q2.208 19.271 1.479 18.542Q0.75 17.812 0.75 16.75V3.25Q0.75 2.188 1.479 1.458Q2.208 0.729 3.271 0.729H16.771Q17.833 0.729 18.562 1.458Q19.292 2.188 19.292 3.25V16.75Q19.292 17.812 18.562 18.542Q17.833 19.271 16.771 19.271ZM13.896 13.854H6.25L6.604 13.479Q6.875 13.208 6.865 12.812Q6.854 12.417 6.583 12.125Q6.271 11.833 5.885 11.833Q5.5 11.833 5.188 12.125L3.375 13.917Q2.979 14.333 2.979 14.844Q2.979 15.354 3.375 15.75L5.292 17.646Q5.604 17.958 5.979 17.948Q6.354 17.938 6.667 17.625Q6.958 17.333 6.969 16.948Q6.979 16.562 6.667 16.25L6.25 15.833H14.583Q15.083 15.833 15.479 15.438Q15.875 15.042 15.875 14.542V11.625Q15.875 11.229 15.583 10.938Q15.292 10.646 14.875 10.646Q14.5 10.646 14.198 10.948Q13.896 11.25 13.896 11.646ZM6.146 6.083H13.792L13.396 6.479Q13.125 6.75 13.125 7.135Q13.125 7.521 13.438 7.833Q13.729 8.125 14.125 8.125Q14.521 8.125 14.812 7.833L16.646 6.021Q17.062 5.604 17.062 5.094Q17.062 4.583 16.646 4.188L14.729 2.292Q14.438 1.979 14.042 2Q13.646 2.021 13.375 2.312Q13.062 2.604 13.062 2.99Q13.062 3.375 13.354 3.688L13.792 4.104H5.458Q4.938 4.104 4.552 4.5Q4.167 4.896 4.167 5.396V8.312Q4.167 8.708 4.448 9Q4.729 9.292 5.146 9.292Q5.542 9.292 5.844 8.99Q6.146 8.688 6.146 8.292Z"/></svg>
